X:948
T:Aada (CT 139)
R:Aada
C:Tradicional
S:Msica Tradicional Asturiana, (C) Tello & Tito. Asturies, 2001.
S:http://pagina.de/MusTradAst <telloytito@asturies.org>
N:Cancin de Cuna (Aada), transcrita en Navia.
O:Navia
A:Asturies
Z:Cancioneru de Torner 139
M:6/8
L:1/8
Q:3/8=80
W:Este nin
W:que tengo nel collo
W:e d'un amor
W:que se l.lama Vitorio;
W:Dios que mo deu,
W:l.leveme llougo,
W:por nun andar con Vitorio,
W:nel collo.
K:G
GAB
|c2 c cBA|B2 B GAB|ccc cBA|B2 B GAB|
ccc B2A|B2 B GGG|AAA AGF|G3 G3-|G2 z||
